krita/pics/tools/SVG/16/light_krita_tool_gradient.svg

<?xml version="1.0" encoding="UTF-8" standalone="no"?>
<svg
   xmlns:dc="http://purl.org/dc/elements/1.1/"
   xmlns:cc="http://creativecommons.org/ns#"
   xmlns:rdf="http://www.w3.org/1999/02/22-rdf-syntax-ns#"
   xmlns:svg="http://www.w3.org/2000/svg"
   xmlns="http://www.w3.org/2000/svg"
   xmlns:xlink="http://www.w3.org/1999/xlink"
   version="1.1"
   id="svg2"
   viewBox="0 0 32 32.000001"
   height="32"
   width="32">
  <defs
     id="defs4">
    <linearGradient
       id="linearGradient5033">
      <stop
         id="stop5035"
         offset="0"
         style="stop-color:#d2d2d2;stop-opacity:1;" />
      <stop
         id="stop5037"
         offset="1"
         style="stop-color:#d2d2d2;stop-opacity:0;" />
    </linearGradient>
    <linearGradient
       gradientUnits="userSpaceOnUse"
       y2="16"
       x2="6"
       y1="16"
       x1="26"
       id="linearGradient5039"
       xlink:href="#linearGradient5033" />
  </defs>
  <metadata
     id="metadata7">
    <rdf:RDF>
      <cc:Work
         rdf:about="">
        <dc:format>image/svg+xml</dc:format>
        <dc:type
           rdf:resource="http://purl.org/dc/dcmitype/StillImage" />
        <dc:title></dc:title>
        <dc:creator>
          <cc:Agent>
            <dc:title>Andrei Rudenko</dc:title>
          </cc:Agent>
        </dc:creator>
        <cc:license
           rdf:resource="http://creativecommons.org/licenses/by-sa/4.0/" />
      </cc:Work>
      <cc:License
         rdf:about="http://creativecommons.org/licenses/by-sa/4.0/">
        <cc:permits
           rdf:resource="http://creativecommons.org/ns#Reproduction" />
        <cc:permits
           rdf:resource="http://creativecommons.org/ns#Distribution" />
        <cc:requires
           rdf:resource="http://creativecommons.org/ns#Notice" />
        <cc:requires
           rdf:resource="http://creativecommons.org/ns#Attribution" />
        <cc:permits
           rdf:resource="http://creativecommons.org/ns#DerivativeWorks" />
        <cc:requires
           rdf:resource="http://creativecommons.org/ns#ShareAlike" />
      </cc:License>
    </rdf:RDF>
  </metadata>
  <g
     style="display:inline"
     id="layer3">
    <g
       transform="matrix(0,-1,1,0,0,30)"
       id="g4171-7"
       style="display:inline" />
    <path
       id="rect4157"
       d="m 0,0 0,4 0,24 0,4 32,0 0,-4 0,-24 0,-4 z m 2,2 28,0 0,28 -28,0 z"
       style="opacity:1;fill:#d2d2d2;fill-opacity:1;stroke:none;stroke-width:4;stroke-linecap:butt;stroke-linejoin:round;stroke-miterlimit:4;stroke-dasharray:none;stroke-dashoffset:1;stroke-opacity:1" />
  </g>
  <g
     style="display:inline"
     id="layer6">
    <path
       id="rect5031"
       d="m 4,3.9999995 24,0 0,1e-7 0,23.9999994 0,1e-6 -24,0 0,-1e-6 0,-23.9999994 z"
       style="opacity:1;fill:url(#linearGradient5039);fill-opacity:1;stroke:none;stroke-width:4;stroke-linecap:square;stroke-linejoin:miter;stroke-miterlimit:4;stroke-dasharray:none;stroke-dashoffset:0;stroke-opacity:1" />
  </g>
  <g
     id="layer1" />
</svg>

<?xml version="1.0" encoding="UTF-8" standalone="no"?>
<svg
   xmlns:dc="http://purl.org/dc/elements/1.1/"
   xmlns:cc="http://creativecommons.org/ns#"
   xmlns:rdf="http://www.w3.org/1999/02/22-rdf-syntax-ns#"
   xmlns:svg="http://www.w3.org/2000/svg"
   xmlns="http://www.w3.org/2000/svg"
   xmlns:xlink="http://www.w3.org/1999/xlink"
   width="16"
   height="16"
   viewBox="0 0 16 16"
   id="svg2"
   version="1.1">
  <defs
     id="defs4">
    <linearGradient
       id="linearGradient5033">
      <stop
         style="stop-color:#d2d2d2;stop-opacity:1;"
         offset="0"
         id="stop5035" />
      <stop
         style="stop-color:#d2d2d2;stop-opacity:0;"
         offset="1"
         id="stop5037" />
    </linearGradient>
    <linearGradient
       xlink:href="#linearGradient5033"
       id="linearGradient5039"
       x1="26"
       y1="16"
       x2="6"
       y2="16"
       gradientUnits="userSpaceOnUse" />
  </defs>
  <metadata
     id="metadata7">
    <rdf:RDF>
      <cc:Work
         rdf:about="">
        <dc:format>image/svg+xml</dc:format>
        <dc:type
           rdf:resource="http://purl.org/dc/dcmitype/StillImage" />
        <dc:title></dc:title>
        <dc:creator>
          <cc:Agent>
            <dc:title>Andrei Rudenko</dc:title>
          </cc:Agent>
        </dc:creator>
        <cc:license
           rdf:resource="http://creativecommons.org/licenses/by-sa/4.0/" />
      </cc:Work>
      <cc:License
         rdf:about="http://creativecommons.org/licenses/by-sa/4.0/">
        <cc:permits
           rdf:resource="http://creativecommons.org/ns#Reproduction" />
        <cc:permits
           rdf:resource="http://creativecommons.org/ns#Distribution" />
        <cc:requires
           rdf:resource="http://creativecommons.org/ns#Notice" />
        <cc:requires
           rdf:resource="http://creativecommons.org/ns#Attribution" />
        <cc:permits
           rdf:resource="http://creativecommons.org/ns#DerivativeWorks" />
        <cc:requires
           rdf:resource="http://creativecommons.org/ns#ShareAlike" />
      </cc:License>
    </rdf:RDF>
  </metadata>
  <g
     transform="scale(0.5)"
     id="layer3"
     style="display:inline">
    <g
       style="display:inline"
       id="g4171-7"
       transform="rotate(-90,15,15)" />
    <path
       style="opacity:1;fill:#d2d2d2;fill-opacity:1;stroke:none;stroke-width:4;stroke-linecap:butt;stroke-linejoin:round;stroke-miterlimit:4;stroke-dasharray:none;stroke-dashoffset:1;stroke-opacity:1"
       d="M 0,0 V 32 H 32 V 0 Z M 2,2 H 30 V 30 H 2 Z"
       id="rect4157" />
  </g>
  <g
     transform="scale(0.5)"
     id="layer6"
     style="display:inline">
    <path
       style="opacity:1;fill:url(#linearGradient5039);fill-opacity:1;stroke:none;stroke-width:4;stroke-linecap:square;stroke-linejoin:miter;stroke-miterlimit:4;stroke-dasharray:none;stroke-dashoffset:0;stroke-opacity:1"
       d="m 4,3.9999995 h 24 v 1e-7 V 27.999999 28 H 4 v -1e-6 z"
       id="rect5031" />
  </g>
  <g
     transform="translate(0,-16)"
     id="layer1" />
</svg>
